img/image/catalogue-value-black.svg

<svg width="24" height="18" viewBox="0 0 24 18" fill="none" xmlns="http://www.w3.org/2000/svg">
<g opacity="0.6">
<path d="M13.3373 17.0001H19.4259C19.7526 17.0001 20.0175 16.7186 20.0175 16.3713V8.06818C20.0175 7.88164 19.9396 7.70475 19.8048 7.58534L16.1699 4.36457C16.0636 4.27034 15.9295 4.21871 15.791 4.21871H6.64924C6.53079 4.21872 6.41509 4.25649 6.31712 4.32712L4.09565 5.92824C4.01568 5.98595 3.95022 6.06355 3.90498 6.15425C3.85975 6.24495 3.83611 6.34602 3.83614 6.44863V12.9184C3.83614 13.1567 3.9629 13.3745 4.16355 13.4809L10.6734 16.9339C10.7554 16.9774 10.8459 17.0001 10.9376 17.0001H11.9268" stroke="#0B101A" stroke-width="0.5" stroke-miterlimit="10" stroke-linecap="round" stroke-linejoin="round"/>
<path d="M21.4466 15.2422H20.0176V9.62662H21.4466V15.2422Z" stroke="#0B101A" stroke-width="0.5" stroke-miterlimit="10" stroke-linecap="round" stroke-linejoin="round"/>
<path d="M22.8537 11.994V15.9798C22.8537 16.392 22.5387 16.7261 22.1502 16.7261C21.7616 16.7261 21.4466 16.392 21.4466 15.9798V8.88939C21.4466 8.47717 21.7616 8.14304 22.1502 8.14304C22.5387 8.14304 22.8537 8.47717 22.8537 8.88939V10.5012" stroke="#0B101A" stroke-width="0.5" stroke-miterlimit="10" stroke-linecap="round" stroke-linejoin="round"/>
<path d="M1.70354 14.1079C1.31497 14.1079 1 13.7738 1 13.3616V6.27117C1 5.85895 1.31497 5.52481 1.70354 5.52481C2.09211 5.52481 2.40708 5.85895 2.40708 6.27117V13.3616C2.40708 13.7738 2.09211 14.1079 1.70354 14.1079Z" stroke="#0B101A" stroke-width="0.5" stroke-miterlimit="10" stroke-linecap="round" stroke-linejoin="round"/>
<path d="M10.5096 1.00002H14.7391C15.1276 1.00002 15.4426 1.33416 15.4426 1.74638C15.4426 2.1586 15.1276 2.49274 14.7391 2.49274H8.05544C7.66686 2.49274 7.3519 2.1586 7.3519 1.74638C7.3519 1.33416 7.66686 1.00002 8.05544 1.00002H9.10257" stroke="#0B101A" stroke-width="0.5" stroke-miterlimit="10" stroke-linecap="round" stroke-linejoin="round"/>
<path d="M12.0568 4.21872H10.7376V2.49277H12.0568V4.21872ZM2.40707 9.00763H3.83614V10.407H2.40707V9.00763Z" stroke="#0B101A" stroke-width="0.5" stroke-miterlimit="10" stroke-linecap="round" stroke-linejoin="round"/>
<path d="M13.3271 7.10675L10.1569 9.51277C10.1392 9.52621 10.1244 9.54355 10.1136 9.5636C10.1028 9.58365 10.0962 9.60595 10.0942 9.62896C10.0922 9.65198 10.095 9.67517 10.1022 9.69695C10.1095 9.71874 10.1211 9.7386 10.1363 9.75519L10.9332 10.6277C10.952 10.6483 10.9653 10.6739 10.9716 10.7018C10.9779 10.7297 10.9771 10.7589 10.9692 10.7864L10.26 13.252C10.2184 13.3968 10.3713 13.5167 10.4896 13.4321L13.8392 11.0335C13.8573 11.0205 13.8726 11.0035 13.884 10.9837C13.8953 10.9638 13.9025 10.9416 13.905 10.9186C13.9074 10.8956 13.9052 10.8722 13.8984 10.8502C13.8916 10.8281 13.8803 10.8079 13.8654 10.7909L12.8789 9.66451C12.8603 9.64325 12.8474 9.61703 12.8417 9.58865C12.836 9.56026 12.8377 9.53077 12.8465 9.5033L13.5585 7.28928C13.6061 7.1414 13.4469 7.01588 13.3271 7.10675Z" stroke="#0B101A" stroke-width="0.5" stroke-miterlimit="10" stroke-linecap="round" stroke-linejoin="round"/>
</g>
</svg>

<svg width="24" height="18" fill="none" xmlns="http://www.w3.org/2000/svg"><g opacity=".6" stroke="#0B101A" stroke-width=".5" stroke-miterlimit="10" stroke-linecap="round" stroke-linejoin="round"><path d="M13.337 17h6.089c.327 0 .591-.281.591-.629V8.068a.645.645 0 0 0-.212-.483l-3.635-3.22a.57.57 0 0 0-.379-.146H6.649a.567.567 0 0 0-.332.108L4.096 5.928a.618.618 0 0 0-.191.226.66.66 0 0 0-.069.295v6.47c0 .238.127.455.328.562l6.51 3.453a.563.563 0 0 0 .264.066h.989"/><path d="M21.447 15.242h-1.43V9.627h1.43v5.615ZM22.854 11.994v3.986c0 .412-.315.746-.704.746-.388 0-.703-.334-.703-.746V8.89c0-.413.315-.747.703-.747.389 0 .704.334.704.746v1.612M1.704 14.108c-.389 0-.704-.334-.704-.746v-7.09c0-.413.315-.747.704-.747.388 0 .703.334.703.746v7.09c0 .413-.315.747-.703.747ZM10.51 1h4.23c.388 0 .703.334.703.746 0 .413-.315.747-.704.747H8.055c-.388 0-.703-.334-.703-.747 0-.412.315-.746.703-.746h1.048M12.057 4.219h-1.32V2.493h1.32v1.726Zm-9.65 4.789h1.43v1.399h-1.43v-1.4ZM13.327 7.107l-3.17 2.406a.158.158 0 0 0-.043.05.169.169 0 0 0 .022.192l.797.873c.019.02.032.046.039.074a.17.17 0 0 1-.003.084l-.709 2.466c-.042.145.111.265.23.18l3.35-2.399a.159.159 0 0 0 .065-.114.172.172 0 0 0-.04-.128l-.986-1.126a.17.17 0 0 1-.032-.161l.711-2.215c.048-.148-.111-.273-.23-.182Z"/></g></svg>
